X:2588
T:Den Hoboeken Danse
C:Tielman Susato
L:1/8
M:6/4
O:Germany ?
Z:Andy Hornby
K:G
A2|A4e2e4a2|g2a2f2e4e2|d2e2c2B4:|
|:A2|A2A2B2c4c2|B2c2A2G4d2|c2A2c2B4A2|
A2A2B2c2A2d2|c2B2A2G4A2|A2A2^G2A6:|

